src/fonts/instagram.svg

<?xml version="1.0" encoding="utf-8"?>
<!-- Generator: Adobe Illustrator 17.1.0, SVG Export Plug-In . SVG Version: 6.00 Build 0)  -->
<!DOCTYPE svg PUBLIC "-//W3C//DTD SVG 1.1//EN" "http://www.w3.org/Graphics/SVG/1.1/DTD/svg11.dtd">
<svg version="1.1" xmlns="http://www.w3.org/2000/svg" xmlns:xlink="http://www.w3.org/1999/xlink" x="0px" y="0px"
	 viewBox="0 0 512 512" enable-background="new 0 0 512 512" xml:space="preserve">
<g id="Twitter" display="none">
	<g display="inline">
		<path d="M512,95.687c-18.838,8.448-39.081,14.158-60.331,16.725c21.689-13.145,38.344-33.961,46.187-58.764
			C477.56,65.82,455.079,74.66,431.152,79.424c-19.161-20.644-46.461-33.543-76.673-33.543
			c-58.014,0-105.046,47.557-105.046,106.213c0,8.326,0.929,16.431,2.719,24.206c-87.3-4.429-164.701-46.715-216.51-110.977
			c-9.042,15.688-14.221,33.933-14.221,53.399c0,36.849,18.545,69.36,46.73,88.408c-17.219-0.551-33.416-5.33-47.579-13.285
			c-0.007,0.444-0.009,0.888-0.009,1.335c0,51.463,36.208,94.393,84.263,104.15c-8.815,2.426-18.095,3.725-27.675,3.725
			c-6.769,0-13.349-0.666-19.763-1.905c13.367,42.198,52.16,72.907,98.126,73.765c-35.951,28.487-81.243,45.467-130.457,45.467
			c-8.479,0-16.84-0.503-25.058-1.483c46.487,30.136,101.701,47.72,161.021,47.72c193.213,0,298.868-161.848,298.868-302.207
			c0-4.605-0.102-9.186-0.304-13.74C480.108,135.695,497.918,116.987,512,95.687z"/>
	</g>
</g>
<g id="Facebook" display="none">
	<path display="inline" d="M483.466,0H28.098C12.491,0,0,12.773,0,28.378v455.37C0,499.35,12.491,512,28.098,512H256V333h-64v-77h64
		v-57.447c0-66.115,40.395-102.115,99.374-102.115c28.25,0,54.626,2.103,60.626,3.043v69.094l-41.811,0.019
		c-32.075,0-38.189,15.242-38.189,37.609V256h80.026l0.039,77H336v179h147.466C499.067,512,512,499.35,512,483.748V28.378
		C512,12.773,499.067,0,483.466,0z"/>
</g>
<g id="Google_Plus" display="none">
	<path display="inline" d="M243.36,24c4.198,3,8.923,6.663,14.174,11.683c5.036,5.245,9.976,11.796,14.804,19.444
		c4.619,7.207,8.711,15.779,12.285,25.608c2.936,9.832,4.407,21.325,4.407,34.436c-0.395,24.031-5.675,43.265-15.838,57.68
		c-4.985,6.995-10.265,13.442-15.844,19.342c-6.173,5.897-12.748,11.913-19.724,18.025c-3.983,4.153-7.67,8.847-11.055,14.089
		c-3.983,5.463-5.977,11.798-5.977,19.009c0,6.992,2.043,12.777,6.132,17.364c3.469,4.375,6.845,8.194,10.117,11.47l22.686,18.677
		c14.1,11.582,26.463,24.353,37.091,38.337c10.015,14.2,15.228,32.768,15.635,55.704c0,32.546-14.306,61.382-42.92,86.503
		c-29.671,25.997-72.492,39.429-128.443,40.306c-46.842-0.44-81.816-10.471-104.913-30.092C12.659,463.267,1,441.355,1,415.849
		c0-12.433,3.793-26.276,11.373-41.539c7.362-15.266,20.685-28.679,39.972-40.226c21.661-12.43,44.414-20.713,68.246-24.854
		c23.607-3.495,43.216-5.451,58.816-5.891c-4.821-6.369-9.119-13.178-12.889-20.428c-4.404-7.028-6.6-15.485-6.6-25.371
		c0-5.929,0.835-10.875,2.512-14.826c1.468-4.172,2.83-8.014,4.089-11.524c-7.599,0.874-14.759,1.31-21.488,1.31
		c-35.597-0.437-62.731-11.682-81.399-33.747c-19.535-20.527-29.302-44.443-29.302-71.747c0-32.983,13.84-62.902,41.52-89.772
		c19.014-15.719,38.768-26.097,59.263-30.905C155.396,2.187,174.413,0,192.159,0h133.74l-41.305,24H243.36z M269.196,411.128
		c0-17.042-5.541-31.904-16.612-44.568c-11.711-12.022-30.018-26.768-54.936-44.247c-4.259-0.44-9.26-0.655-15.009-0.655
		c-3.408-0.437-12.141,0-26.193,1.314c-13.843,1.962-28.001,5.129-42.474,9.501c-3.414,1.31-8.203,3.273-14.376,5.9
		c-6.176,2.836-12.452,6.886-18.841,12.125c-6.176,5.457-11.389,12.234-15.652,20.318c-4.901,8.521-7.349,18.786-7.349,30.808
		c0,23.591,10.644,43.036,31.939,58.338c20.228,15.292,47.912,23.155,83.043,23.598c31.515-0.443,55.575-7.432,72.184-20.98
		C261.099,449.247,269.196,432.098,269.196,411.128z M175.952,214.21c17.604-0.652,32.273-7.002,44.013-19.043
		c5.659-8.534,9.295-17.29,10.914-26.264c0.967-8.971,1.455-16.522,1.455-22.653c0-26.485-6.742-53.192-20.228-80.117
		c-6.324-12.912-14.649-23.418-24.976-31.518c-10.541-7.657-22.657-11.707-36.355-12.151c-18.121,0.443-33.195,7.776-45.204,22.001
		c-10.13,14.887-14.98,31.525-14.54,49.906c0,24.295,7.073,49.582,21.234,75.846c6.851,12.26,15.697,22.657,26.533,31.191
		C149.633,209.948,162.018,214.21,175.952,214.21z"/>
	<path display="inline" d="M480,224.25h-64v-64h-32v64h-64v32h64v64h32v-64h64V224.25z"/>
</g>
<g id="Instagram">
	<path fill-rule="evenodd" clip-rule="evenodd" d="M452.166,216.472H407.67c3.242,12.585,5.157,25.734,5.157,39.33
		c0,86.87-70.406,157.272-157.263,157.272c-86.852,0-157.263-70.402-157.263-157.272c0-13.596,1.924-26.746,5.166-39.33H58.965
		v216.263c0,10.842,8.805,19.643,19.679,19.643h353.843c10.873,0,19.679-8.801,19.679-19.643V216.472z M452.166,78.869
		c0-10.851-8.805-19.656-19.679-19.656h-58.964c-10.86,0-19.656,8.805-19.656,19.656v58.987c0,10.851,8.796,19.656,19.656,19.656
		h58.964c10.873,0,19.679-8.805,19.679-19.656V78.869z M255.563,157.512c-54.29,0-98.294,43.999-98.294,98.29
		c0,54.281,44.004,98.303,98.294,98.303s98.303-44.022,98.303-98.303C353.867,201.512,309.854,157.512,255.563,157.512
		 M452.166,511.373h-393.2c-32.562,0-58.964-26.411-58.964-58.996V59.213c0-32.566,26.402-58.964,58.964-58.964h393.2
		c32.566,0,58.964,26.398,58.964,58.964v393.164C511.13,484.962,484.732,511.373,452.166,511.373"/>
</g>
<g id="minus" display="none">
	<rect x="32.25" y="192.5" display="inline" fill="#010101" width="448" height="128"/>
</g>
<g id="plus" display="none">
	<polygon display="inline" fill="#010101" points="480.25,192 320.25,192 320.25,32 192.25,32 192.25,192 31.75,192 31.75,320 
		192.25,320 192.25,480.5 320.25,480.5 320.25,320 480.25,320 	"/>
</g>
<g id="calendar" display="none">
	<rect x="96" y="33" display="inline" fill="none" width="32" height="64"/>
	<rect x="384" y="33" display="inline" fill="none" width="32" height="64"/>
	<rect x="32" y="225" display="inline" fill="none" width="448" height="256"/>
	<path display="inline" fill="#010101" d="M448,65V1h-96v64H160V1H64v64H0v448h183.331h146.123H512V65H448z M384,33h32v64h-32V33z
		 M96,33h32v64H96V33z M480,481H32V225h448V481z M480,128.75V193H32v-64.25v-32l32-0.25V129h96V97h192v31.5l96,0.25V97h32V128.75z"
		/>
</g>
<g id="Layer_8" display="none">
	<g id="NDwt5I_1_" display="inline">
		
			<image overflow="visible" width="23" height="24" id="NDwt5I" xlink:href="data:image/jpeg;base64,/9j/4AAQSkZJRgABAgEAAgACAAD/7AARRHVja3kAAQAEAAAAHgAA/+4AIUFkb2JlAGTAAAAAAQMA
EAMCAwYAAAGrAAAB6QAAAsz/2wCEABALCwsMCxAMDBAXDw0PFxsUEBAUGx8XFxcXFx8eFxoaGhoX
Hh4jJSclIx4vLzMzLy9AQEBAQEBAQEBAQEBAQEABEQ8PERMRFRISFRQRFBEUGhQWFhQaJhoaHBoa
JjAjHh4eHiMwKy4nJycuKzU1MDA1NUBAP0BAQEBAQEBAQEBAQP/CABEIABwAGwMBIgACEQEDEQH/
xACSAAEBAQEBAAAAAAAAAAAAAAAGBQQABwEBAAAAAAAAAAAAAAAAAAAAABAAAQIEBgMAAAAAAAAA
AAAABQACARMEBiARAxUWFxQlJxEAAQEEBwQEDwAAAAAAAAAAAREAAhIDITFRYSITBDIUNBVBUmI2
8JHB4UKC0jNDU5MkZAUWEgEAAAAAAAAAAAAAAAAAAAAg/9oADAMBAAIRAxEAAADOkl3SREZDhGh8
32jwJ0c//9oACAECAAEFAMH/2gAIAQMAAQUAwf/aAAgBAQABBQAGDoytH1/a6JWWCpVtNJLs8SIq
bbcBAKAG35vgDlY0X8Te7UUHak/N6Fc0253aS+pzPfyv/9oACAECAgY/AB//2gAIAQMCBj8AH//a
AAgBAQEGPwDR63W6ObrJ+smzN61WZM+YXVMJQEDES8gICBXiAeGf+rM9ppO7frpuozHkfhmTCgso
eoJtOG01NlY8vnnKIcx5Nyjzsqvr4ltaVO1Mh2ZqCZuMxLQ88BVQ0tNK7Xi26kN7H7V2GEJt1qb2
90O8m7+lw/U8KWlAOgurOpXtvdCNKwjaop7JuZ7AFhFEV71zVDvWtfTYx/no+TRTMjM3WOGIxRR4
lXzM4tuDg60PkY9dAvB1KUb4mbzL8eHnWZ44cr1Yrm//2Q==" transform="matrix(42.6667 0 0 42.6667 832 -256)">
		</image>
	</g>
	<path display="inline" d="M480,32.25v432c0,8.837-7.163,16-16,16H48c-8.837,0-16-7.163-16-16v-416c0-8.837,7.163-16,16-16H480
		 M512,0.25H16c-8.837,0-16,7.163-16,16v480c0,8.837,7.163,16,16,16h480c8.837,0,16-7.163,16-16V0.25L512,0.25z"/>
</g>
<g id="Facebook-alt" display="none">
	<path id="f" display="inline" fill="#231F20" d="M268,512V284h78.978l11.736-92H268v-62.426c0-26.352,7.665-44.31,45.455-44.31
		L362,85.241V3.836c-9-1.108-37.3-3.586-70.584-3.586C221.926,0.25,174,42.666,174,120.561V192H96v92h78v228H268z"/>
</g>
<g id="LinkedIn" display="none">
	<path display="inline" fill="#231F20" d="M474.072,0H37.767C16.938,0,0,16.775,0,37.138v438.166C0,495.695,16.938,512,37.767,512
		h436.305c20.87,0,37.928-16.305,37.928-36.696V37.138C512,16.775,494.942,0,474.072,0z M152,436H76V192h76V436z M113.798,158.794
		c-24.407,0-44.086-19.733-44.086-44.041c0-24.282,19.678-44.013,44.086-44.013c24.312,0,44.045,19.731,44.045,44.013
		C157.843,139.061,138.11,158.794,113.798,158.794z M436,436h-76V317.722c0-28.339-0.512-64.788-39.457-64.788
		c-39.544,0-45.543,30.86-45.543,62.729V436h-76V192h73v33h1.367c10.133-18,34.751-39.175,71.717-39.175
		c76.887,0,90.916,50.883,90.916,116.685V436z"/>
</g>
<g id="Layer_11" display="none">
	<path display="inline" fill-rule="evenodd" clip-rule="evenodd" fill="#181616" d="M255.983,6.25C114.628,6.25,0,120.864,0,262.265
		C0,375.359,73.345,471.31,175.081,505.166c12.8,2.348,17.473-5.555,17.473-12.34c0-6.077-0.222-22.176-0.346-43.54
		c-71.211,15.47-86.236-34.317-86.236-34.317c-11.641-29.574-28.423-37.447-28.423-37.447c-23.243-15.884,1.759-15.562,1.759-15.562
		c25.69,1.81,39.212,26.382,39.212,26.382c22.836,39.121,59.916,27.824,74.503,21.271c2.326-16.544,8.939-27.824,16.253-34.224
		c-56.846-6.461-116.608-28.423-116.608-126.523c0-27.947,9.975-50.799,26.35-68.694c-2.632-6.476-11.417-32.505,2.51-67.75
		c0,0,21.494-6.883,70.398,26.243c20.419-5.678,42.319-8.518,64.09-8.617c21.739,0.099,43.641,2.939,64.09,8.617
		c48.874-33.127,70.329-26.243,70.329-26.243c13.966,35.245,5.18,61.274,2.547,67.75c16.407,17.895,26.314,40.747,26.314,68.694
		c0,98.345-59.854,119.985-116.885,126.324c9.192,7.903,17.38,23.528,17.38,47.408c0,34.224-0.314,61.835-0.314,70.228
		c0,6.846,4.611,14.81,17.603,12.31C438.717,471.218,512,375.329,512,262.265C512,120.864,397.37,6.25,255.983,6.25z"/>
</g>
<g id="email" display="none">
	<polygon display="inline" points="256,384.75 191.885,320.384 0,416.75 0,448.25 512,448.25 512,416.75 320.121,320.378 	"/>
	<polygon display="inline" points="0,127.75 0,352.25 148.999,277.33 	"/>
	<polygon display="inline" points="363.012,277.32 512,352.25 512,127.75 	"/>
	<polygon display="inline" points="256,289.25 0,64.25 511.75,64.25 	"/>
</g>
</svg>

<?xml version="1.0" encoding="UTF-8" standalone="no"?>
<svg width="512px" height="512px" viewBox="0 0 512 512" version="1.1" xmlns="http://www.w3.org/2000/svg" xmlns:xlink="http://www.w3.org/1999/xlink" xmlns:sketch="http://www.bohemiancoding.com/sketch/ns">
    <title>Untitled</title>
    <description>Created with Sketch (http://www.bohemiancoding.com/sketch)</description>
    <defs></defs>
    <g id="Page-1" stroke="none" stroke-width="1" fill="none" fill-rule="evenodd" sketch:type="MSPage">
        <g id="instagram" sketch:type="MSLayerGroup" transform="translate(0.000000, -256.000000)" fill="#000000">
            <g id="Instagram" transform="translate(0.000000, 256.000000)" sketch:type="MSShapeGroup">
                <path d="M58.966,511.373 C26.404,511.373 0.002,484.962 0.002,452.377 L0.002,59.213 C0.002,26.647 26.404,0.249 58.966,0.249 L452.166,0.249 C484.732,0.249 511.13,26.647 511.13,59.213 L511.13,452.377 C511.13,484.962 484.732,511.373 452.166,511.373 L58.966,511.373 Z M452.166,216.472 L407.67,216.472 C410.912,229.057 412.827,242.206 412.827,255.802 C412.827,342.672 342.421,413.074 255.564,413.074 C168.712,413.074 98.301,342.672 98.301,255.802 C98.301,242.206 100.225,229.056 103.467,216.472 L58.965,216.472 L58.965,432.735 C58.965,443.577 67.77,452.378 78.644,452.378 L432.487,452.378 C443.36,452.378 452.166,443.577 452.166,432.735 L452.166,216.472 Z M452.166,78.869 C452.166,68.018 443.361,59.213 432.487,59.213 L373.523,59.213 C362.663,59.213 353.867,68.018 353.867,78.869 L353.867,137.856 C353.867,148.707 362.663,157.512 373.523,157.512 L432.487,157.512 C443.36,157.512 452.166,148.707 452.166,137.856 L452.166,78.869 Z M255.563,157.512 C201.273,157.512 157.269,201.511 157.269,255.802 C157.269,310.083 201.273,354.105 255.563,354.105 C309.853,354.105 353.866,310.083 353.866,255.802 C353.867,201.512 309.854,157.512 255.563,157.512 Z" id="Shape"></path>
            </g>
        </g>
    </g>
</svg>
